src/Assets/buildings.svg

<svg width="77" height="77" viewBox="0 0 77 77" fill="none" xmlns="http://www.w3.org/2000/svg">
<path opacity="0.6" d="M22.7188 14.8281H30.673C30.6279 15.3434 30.6094 15.8697 30.6094 16.4062V24.2969H17.9844V19.5625C17.9844 16.9622 20.1184 14.8281 22.7188 14.8281Z" stroke="#2F32DE" stroke-width="3.15625"/>
<path d="M30.6094 60.5938C30.6094 63.8103 31.3712 66.5255 33.1291 68.4844H16.4062C13.4933 68.4844 11.5984 67.7572 10.4206 66.5794C9.2428 65.4016 8.51562 63.5067 8.51562 60.5938V35.3438C8.51562 32.4308 9.2428 30.5359 10.4206 29.3581C11.5984 28.1803 13.4933 27.4531 16.4062 27.4531H30.6094V60.5938ZM19.5625 58.2266C21.7281 58.2266 23.5078 56.4469 23.5078 54.2812V41.6562C23.5078 39.4906 21.7281 37.7109 19.5625 37.7109C17.3969 37.7109 15.6172 39.4906 15.6172 41.6562V54.2812C15.6172 56.4469 17.3969 58.2266 19.5625 58.2266Z" fill="#2F32DE" stroke="#2F32DE" stroke-width="3.15625"/>
<path opacity="0.4" d="M44.8125 70.0625H41.6562C35.3438 70.0625 32.1875 66.9062 32.1875 60.5938V16.4062C32.1875 10.0938 35.3438 6.9375 41.6562 6.9375H60.5938C66.9062 6.9375 70.0625 10.0938 70.0625 16.4062V60.5938C70.0625 66.9062 66.9062 70.0625 60.5938 70.0625H57.4375" fill="#2F32DE"/>
<path d="M57.4375 57.4375V70.0625H44.8125V57.4375C44.8125 55.7016 46.2328 54.2812 47.9688 54.2812H54.2812C56.0172 54.2812 57.4375 55.7016 57.4375 57.4375Z" fill="#2F32DE"/>
<path d="M44.8125 44.0234C43.5184 44.0234 42.4453 42.9503 42.4453 41.6562V25.875C42.4453 24.5809 43.5184 23.5078 44.8125 23.5078C46.1066 23.5078 47.1797 24.5809 47.1797 25.875V41.6562C47.1797 42.9503 46.1066 44.0234 44.8125 44.0234Z" fill="#2F32DE"/>
<path d="M57.4375 44.0234C56.1434 44.0234 55.0703 42.9503 55.0703 41.6562V25.875C55.0703 24.5809 56.1434 23.5078 57.4375 23.5078C58.7316 23.5078 59.8047 24.5809 59.8047 25.875V41.6562C59.8047 42.9503 58.7316 44.0234 57.4375 44.0234Z" fill="#2F32DE"/>
</svg>

<svg xmlns="http://www.w3.org/2000/svg" width="77" height="77" fill="none"><path stroke="#2F32DE" stroke-width="3.156" d="M22.719 14.828h7.954a18 18 0 0 0-.064 1.578v7.89H17.984v-4.733c0-2.6 2.134-4.735 4.735-4.735Z" opacity=".6"/><path fill="#2F32DE" stroke="#2F32DE" stroke-width="3.156" d="M30.61 60.594c0 3.216.761 5.931 2.52 7.89H16.405c-2.913 0-4.808-.727-5.985-1.905s-1.905-3.072-1.905-5.985v-25.25c0-2.913.727-4.808 1.905-5.986s3.072-1.905 5.985-1.905H30.61zm-11.047-2.367a3.963 3.963 0 0 0 3.945-3.946V41.656a3.96 3.96 0 0 0-3.945-3.945 3.96 3.96 0 0 0-3.946 3.945v12.625a3.963 3.963 0 0 0 3.945 3.946Z"/><path fill="#2F32DE" d="M44.813 70.063h-3.157q-9.468 0-9.468-9.47V16.407q0-9.468 9.468-9.468h18.938q9.468 0 9.468 9.468v44.188q0 9.468-9.468 9.468h-3.157" opacity=".4"/><path fill="#2F32DE" d="M57.438 57.438v12.624H44.812V57.439a3.166 3.166 0 0 1 3.157-3.157h6.312a3.166 3.166 0 0 1 3.157 3.157M44.813 44.023a2.384 2.384 0 0 1-2.368-2.367V25.875a2.384 2.384 0 0 1 2.367-2.367 2.384 2.384 0 0 1 2.368 2.367v15.781a2.384 2.384 0 0 1-2.367 2.367M57.438 44.023a2.384 2.384 0 0 1-2.368-2.367V25.875a2.384 2.384 0 0 1 2.367-2.367 2.384 2.384 0 0 1 2.368 2.367v15.781a2.384 2.384 0 0 1-2.367 2.367"/></svg>
